X: 12529
T: Farewell To Ireland
R: reel
M: 4/4
K: Gmajor
G|:(3AAA Ac e2 ef|gedB GBdG|(3AAA Ac e2 ef|gedB eAAG|
(3AAA Ac e2 ef|gedB d2 g2|edeg a2 ba|gedB B {d}A A2:|
|:{g}a3g agef|(3ggg ga gede|(3aaa ag agef|gedB BA A2|
agef gage|d3B GABd|(3cBA BA Bdef|gedB B {d}A A2:|
|:eABA eABA|d3B GABd|eABA eAAf|gedB B {d}A A2|
eABA eABA|d3B GABd|(3cBA BA Bdef|gedB eA A2:|
|:aece aece|gdBd gdBd|aece a3f|gedB B {d}A A2|
agef g3e|dedB GABd|(3cBA BA Bdef|gedB eA A2:|

